X: 30394
T: Old Schoolmaster, The
R: reel
M: 4/4
K: Gmajor
|:G3A c2ed|cAA2 cAA2|EGGE Acde|1 agec d2cA:|2 agec d2cd||
eggf gedg|eaag a3g|eggf ge (3def|agec d2 cd|
e2gf gedg|eaag a3g|e3d c2de|agec d2cA||

